public/images/brand/brand-dark-05.svg

<svg width="108" height="32" viewBox="0 0 108 32" fill="none" xmlns="http://www.w3.org/2000/svg">
<path d="M0.111 21.541C0.111 19.984 0.084 18.681 0 17.516H2.945L3.085 19.516H3.167C3.59108 18.7938 4.20131 18.1987 4.93396 17.7928C5.66661 17.387 6.4948 17.1854 7.332 17.209C8.13877 17.1866 8.93262 17.415 9.6041 17.8628C10.2756 18.3105 10.7916 18.9556 11.081 19.709H11.138C11.552 19.0218 12.1221 18.4418 12.802 18.016C13.599 17.4613 14.5535 17.1783 15.524 17.209C17.774 17.209 20.049 18.736 20.049 23.07V31.037H16.716V23.567C16.716 21.319 15.938 19.984 14.3 19.984C13.7647 20.0027 13.2481 20.1859 12.8206 20.5087C12.3931 20.8315 12.0755 21.2782 11.911 21.788C11.8109 22.1588 11.7548 22.5401 11.744 22.924V31.034H8.411V23.205C8.411 21.321 7.665 19.988 6.081 19.988C5.52152 20.0153 4.98472 20.2175 4.54626 20.5661C4.10779 20.9147 3.78977 21.3921 3.637 21.931C3.50195 22.2852 3.43609 22.662 3.443 23.041V31.041H0.111V21.541ZM33.031 27.788C33.0148 28.874 33.0794 29.9596 33.224 31.036H30.141L29.92 29.536H29.836C29.349 30.1192 28.7359 30.5843 28.043 30.8961C27.3501 31.2079 26.5955 31.3583 25.836 31.336C25.2885 31.3683 24.7402 31.288 24.2249 31.1C23.7096 30.9121 23.2383 30.6205 22.8402 30.2433C22.442 29.8661 22.1254 29.4113 21.9098 28.907C21.6943 28.4026 21.5844 27.8595 21.587 27.311C21.587 23.893 24.611 22.174 29.612 22.201V21.988C29.612 21.098 29.25 19.627 26.861 19.627C25.5812 19.6301 24.3255 19.9754 23.224 20.627L22.558 18.405C24.0538 17.5855 25.7388 17.1738 27.444 17.211C31.777 17.211 33.028 19.963 33.028 22.903V27.788H33.031ZM29.698 24.429C27.281 24.372 24.978 24.9 24.978 26.955C24.956 27.216 24.9912 27.4786 25.0811 27.7246C25.1711 27.9706 25.3136 28.194 25.4988 28.3792C25.684 28.5644 25.9074 28.7069 26.1534 28.7969C26.3994 28.8868 26.662 28.922 26.923 28.9C27.5069 28.9102 28.0791 28.7356 28.5579 28.4012C29.0366 28.0668 29.3975 27.5897 29.589 27.038C29.6637 26.7954 29.7011 26.5429 29.7 26.289V24.431L29.698 24.429ZM35.39 21.538C35.39 19.981 35.362 18.678 35.281 17.513H38.281L38.447 19.543H38.531C38.978 18.8089 39.6112 18.206 40.3663 17.7955C41.1215 17.3851 41.9718 17.1817 42.831 17.206C45.192 17.206 47.631 18.733 47.631 23.012V31.034H44.218V23.403C44.218 21.46 43.495 19.983 41.635 19.983C41.0376 19.997 40.4595 20.1972 39.9815 20.5558C39.5035 20.9144 39.1495 21.4134 38.969 21.983C38.8637 22.3415 38.8171 22.7146 38.831 23.088V31.031H35.388V21.541L35.39 21.538ZM62.441 12.083V27.234C62.441 28.622 62.498 30.125 62.552 31.034H59.5L59.36 28.898H59.303C58.8607 29.6696 58.2153 30.3051 57.4372 30.7356C56.659 31.1662 55.7777 31.3752 54.889 31.34C51.667 31.34 49.114 28.592 49.114 24.429C49.084 19.902 51.914 17.206 55.167 17.206C55.9005 17.1529 56.6354 17.2889 57.3014 17.6009C57.9674 17.9129 58.5423 18.3905 58.971 18.988H59.029V12.088H62.442L62.441 12.083ZM59.028 23.152C59.0281 22.8537 59 22.556 58.944 22.263C58.8102 21.5813 58.4433 20.9675 57.9063 20.5268C57.3693 20.0862 56.6957 19.8462 56.001 19.848C53.808 19.848 52.584 21.793 52.584 24.319C52.584 26.788 53.807 28.594 55.974 28.594C56.6668 28.5902 57.3371 28.3478 57.8721 27.9075C58.4071 27.4673 58.774 26.8561 58.911 26.177C58.9936 25.8503 59.032 25.5139 59.025 25.177V23.152H59.028ZM64.857 31.038V17.515H68.303V31.038H64.857ZM70.716 21.876C70.716 20.044 70.69 18.737 70.607 17.517H73.578L73.687 20.097H73.8C74.0489 19.321 74.5457 18.6482 75.2142 18.182C75.8827 17.7159 76.6858 17.4822 77.5 17.517C77.7659 17.4887 78.0341 17.4887 78.3 17.517V20.517C77.9716 20.4444 77.6363 20.4072 77.3 20.406C76.5626 20.387 75.8439 20.6395 75.2803 21.1155C74.7168 21.5915 74.3476 22.2578 74.243 22.988C74.1758 23.3368 74.139 23.6908 74.133 24.046V31.046H70.716V21.876ZM79.882 31.038V17.515H83.323V31.038H79.882Z" fill="white"  />
<path d="M104.757 3.21405C103.057 1.26905 101.24 2.15005 99.799 2.86505C99.193 3.16505 94.8199 5.64305 94.8199 5.64305C93.991 6.03717 93.0569 6.15274 92.1569 5.97252C91.2569 5.7923 90.4392 5.32596 89.826 4.64305C89.756 4.55706 89.6928 4.46579 89.6369 4.37005L89.466 4.07005C89.1777 3.57146 88.8573 3.09212 88.507 2.63505C88.2942 2.35778 88.0637 2.09456 87.8169 1.84705C86.1779 0.19205 83.5579 -0.96695 79.1789 1.13705C77.1059 2.33705 70.3519 6.19705 70.3519 6.19705C69.4945 6.61029 68.5222 6.72047 67.594 6.50959C66.6659 6.2987 65.8367 5.77923 65.2419 5.03605C65.2136 5.00094 65.1888 4.96309 65.1679 4.92305L65.0849 4.78205L64.6569 4.08205C64.4636 3.77538 64.2566 3.47838 64.0359 3.19105C63.8211 2.91582 63.5904 2.65337 63.3449 2.40505C61.7169 0.75905 59.1109 -0.39495 54.7699 1.66805C52.1449 3.16805 46.0399 6.65705 46.0399 6.65705L41.5699 9.22005L43.8819 12.059C44.5589 12.8492 45.479 13.3923 46.4979 13.6033C47.5167 13.8143 48.5768 13.6813 49.5119 13.225C49.5119 13.225 57.3189 8.70405 57.3499 8.69005C64.0249 5.02705 67.3179 8.52705 68.7749 10.8601C68.8259 10.9331 68.8659 11.012 68.9119 11.083C68.9309 11.111 68.9419 11.1371 68.9579 11.1651L69.1219 11.435C69.4529 11.9756 69.9188 12.4208 70.4739 12.7268C71.029 13.0327 71.6542 13.1889 72.2879 13.18C72.9894 13.1411 73.6672 12.9134 74.2499 12.521L81.8039 8.13905L81.8199 8.13205C88.5789 4.42405 91.9279 8.15305 93.3589 10.486C93.4695 10.6847 93.5921 10.8763 93.7259 11.06C94.0446 11.5436 94.4794 11.9396 94.9905 12.212C95.5016 12.4843 96.0728 12.6243 96.6519 12.619C97.3143 12.5621 97.9554 12.357 98.5279 12.0191L107.584 6.79205C106.715 5.54445 105.771 4.35091 104.757 3.21805V3.21405Z" fill="white"  />
</svg>

<svg xmlns="http://www.w3.org/2000/svg" width="108" height="32" fill="none"><path fill="#fff" d="M.111 21.541c0-1.557-.027-2.86-.111-4.025h2.945l.14 2h.082a4.68 4.68 0 0 1 4.165-2.307 3.9 3.9 0 0 1 3.749 2.5h.057a5.1 5.1 0 0 1 1.664-1.693 4.5 4.5 0 0 1 2.722-.807c2.25 0 4.525 1.527 4.525 5.861v7.967h-3.333v-7.47c0-2.248-.778-3.583-2.416-3.583a2.61 2.61 0 0 0-2.389 1.804c-.1.37-.156.752-.167 1.136v8.11H8.411v-7.829c0-1.884-.746-3.217-2.33-3.217a2.68 2.68 0 0 0-2.444 1.943c-.135.354-.2.731-.194 1.11v8H.111zm32.92 6.247a22 22 0 0 0 .193 3.248h-3.083l-.221-1.5h-.084a5.02 5.02 0 0 1-4 1.8 4.01 4.01 0 0 1-4.249-4.025c0-3.418 3.024-5.137 8.025-5.11v-.213c0-.89-.362-2.361-2.751-2.361a7.2 7.2 0 0 0-3.637 1l-.666-2.222a9.7 9.7 0 0 1 4.886-1.194c4.333 0 5.584 2.752 5.584 5.692v4.885zm-3.333-3.359c-2.417-.057-4.72.471-4.72 2.526a1.8 1.8 0 0 0 1.945 1.945 2.77 2.77 0 0 0 2.666-1.862q.112-.366.111-.749v-1.858zm5.692-2.891c0-1.557-.028-2.86-.109-4.025h3l.166 2.03h.084a4.88 4.88 0 0 1 4.3-2.337c2.361 0 4.8 1.527 4.8 5.806v8.022h-3.413v-7.631c0-1.943-.723-3.42-2.583-3.42a2.87 2.87 0 0 0-2.666 2 3.5 3.5 0 0 0-.138 1.105v7.943h-3.443v-9.49zm27.051-9.455v15.151c0 1.388.057 2.891.111 3.8H59.5l-.14-2.136h-.057a4.87 4.87 0 0 1-4.414 2.442c-3.222 0-5.775-2.748-5.775-6.911-.03-4.527 2.8-7.223 6.053-7.223a4.3 4.3 0 0 1 3.804 1.782h.058v-6.9h3.413zm-3.413 11.069q0-.448-.084-.889a2.99 2.99 0 0 0-2.943-2.415c-2.193 0-3.417 1.945-3.417 4.471 0 2.469 1.223 4.275 3.39 4.275a3.01 3.01 0 0 0 2.937-2.417q.124-.492.114-1v-2.025zm5.829 7.886V17.515h3.446v13.523zm5.859-9.162c0-1.832-.026-3.139-.109-4.359h2.971l.109 2.58h.113a3.72 3.72 0 0 1 3.7-2.58 3.8 3.8 0 0 1 .8 0v3a4.7 4.7 0 0 0-1-.111 3.01 3.01 0 0 0-3.057 2.582 6 6 0 0 0-.11 1.058v7h-3.417zm9.166 9.162V17.515h3.441v13.523z"/><path fill="#fff" d="M104.757 3.214c-1.7-1.945-3.517-1.064-4.958-.349-.606.3-4.98 2.778-4.98 2.778a4.26 4.26 0 0 1-4.993-1 2 2 0 0 1-.19-.273l-.17-.3a13 13 0 0 0-.959-1.435 8 8 0 0 0-.69-.788c-1.64-1.655-4.26-2.814-8.638-.71-2.073 1.2-8.827 5.06-8.827 5.06a4.206 4.206 0 0 1-5.11-1.16 1 1 0 0 1-.074-.114l-.083-.141-.428-.7a12 12 0 0 0-.621-.89 9 9 0 0 0-.691-.787C61.717.76 59.11-.395 54.77 1.668l-8.73 4.989-4.47 2.563 2.312 2.839a4.7 4.7 0 0 0 5.63 1.166s7.807-4.52 7.838-4.535c6.675-3.663 9.968-.163 11.425 2.17.05.073.09.152.137.223.019.028.03.054.046.082l.164.27a3.65 3.65 0 0 0 3.166 1.745 3.9 3.9 0 0 0 1.962-.659l7.554-4.382.016-.007c6.759-3.708 10.108.021 11.539 2.354q.165.298.367.574a3.47 3.47 0 0 0 2.926 1.559 4.4 4.4 0 0 0 1.876-.6l9.056-5.227a38 38 0 0 0-2.827-3.574z"/></svg>
